X: 11830
T: Elmer Briand's
R: reel
M: 4/4
K: Bminor
b|"Bm"fB B/B/B {c}BAFB|"A"AFEF ABcb|"Bm"fB B/B/B {c}BAFB|"F#m"Af"A"ec "Bm"fBB:|
e|"Bm"f2 fg "D"fedf|"A"ec c/c/c edce|"Bm"f2 fg "D"fedf|"A"edce "Bm"fBBe|
"Bm"f2 fg "D"fedf|"A"ec c/c/c edce|"Bm"fd d/d/d "Em"ge e/e/e|"A"{b}afec "Bm"fBB||

